!!!COM: des Prez, Josquin
!!!CDT: ~1450-1521/08/27
!!!OTL@@FRA: Comment peult avoir joye
!!!AGN: Chanson
!!!SCT: NJE 28.7
!!!SCA: New Josquin Edition 28.7
!!!voices: 4
**kern	**text	**kern	**text	**kern	**text	**kern	**text
*staff4	*	*staff3	*	*staff2	*	*staff1	*
*Ivox	*	*Ivox	*	*Ivox	*	*Ivox	*
*I"Bassus	*	*I"Tenor	*	*I"Altus	*	*I"Superius	*
*I'B	*	*I'T	*	*I'A	*	*I'S	*
*clefGv2	*	*clefGv2	*	*clefGv2	*	*clefG2	*
*k[]	*	*k[]	*	*k[]	*	*k[]	*
*M2/1	*	*M2/1	*	*M2/1	*	*M2/1	*
*met(C|)	*	*met(C|)	*	*met(C|)	*	*met(C|)	*
=1-	=1-	=1-	=1-	=1-	=1-	=1-	=1-
!	!	!	!	!	!	!LO:TX:Z=10:t=Canon at the lower 8ve (S-->T, 2 breves)	!
1c	Com-	0r	.	1r	.	0r	.
[1g	-ment	.	.	1c	Com-	.	.
=2	=2	=2	=2	=2	=2	=2	=2
2g\]	.	0r	.	1.g	-ment	0r	.
2f\	peult	.	.	.	.	.	.
2e\	a-	.	.	.	.	.	.
2d\	-voir	.	.	2f\	peult	.	.
=3	=3	=3	=3	=3	=3	=3	=3
2c\	joy-	0r	.	1e	a-	0r	.
2B\	.	.	.	.	.	.	.
2A/	.	.	.	1c	-voir	.	.
2G/	.	.	.	.	.	.	.
=4	=4	=4	=4	=4	=4	=4	=4
2F/	.	0r	.	0d	joy-	0r	.
2E/	.	.	.	.	.	.	.
1D	.	.	.	.	.	.	.
=5	=5	=5	=5	=5	=5	=5	=5
1C	-e,	0r	.	0e	-e,	1r	.
2c\	com-	.	.	.	.	1cc	Com-
2d\	.	.	.	.	.	.	.
=6	=6	=6	=6	=6	=6	=6	=6
1e	-ment	0r	.	2.c\	com-	1.gg	-ment
.	.	.	.	4d\	.	.	.
2c\	peult	.	.	2e\	.	.	.
2d\	.	.	.	2f\	.	2ff\	peult
=7	=7	=7	=7	=7	=7	=7	=7
2e\	a-	1r	.	2g\	-ment	1ee	a-
1c	-voir	.	.	1e	a-	.	.
.	.	1c	Com-	.	.	1cc	-voir
4B\	.	.	.	4d\	.	.	.
4A/	.	.	.	4c\	.	.	.
=8	=8	=8	=8	=8	=8	=8	=8
1.G	.	1.g	-ment	2B\	-voir	0dd	joy-
.	.	.	.	2G/	.	.	.
.	.	.	.	[1g	joy-	.	.
4A/	joy-	2f\	peult	.	.	.	.
4B\	.	.	.	.	.	.	.
=9	=9	=9	=9	=9	=9	=9	=9
4c\	.	1e	a-	2g\]	.	0ee	-e
4B\	.	.	.	.	.	.	.
4A/	.	.	.	4f\	.	.	.
4G/	.	.	.	4e\	.	.	.
1A	.	1c	-voir	4f\	.	.	.
.	.	.	.	4e\	.	.	.
.	.	.	.	4d\	.	.	.
.	.	.	.	4c\	.	.	.
=10	=10	=10	=10	=10	=10	=10	=10
2.G/	.	0d	joy-	2B\	.	1r	.
.	.	.	.	2G/	.	.	.
4F/	.	.	.	.	.	.	.
1D	-e,	.	.	2A/	.	1ff	Qui
.	.	.	.	2B\	.	.	.
=11	=11	=11	=11	=11	=11	=11	=11
1C	Qui	0e	-e	2c\	-e,	1.ee	for-
.	.	.	.	2d\	Qui	.	.
[1c	for-	.	.	2e\	for-	.	.
.	.	.	.	2f\	.	4dd\	.
.	.	.	.	.	.	4cc\	.
=12	=12	=12	=12	=12	=12	=12	=12
1c]	.	1r	.	2g\	-tu-	1ee	.
.	.	.	.	2c\	.	.	.
1B	-tu-	1f	Qui	1d	.	[1dd	-tu-
=13	=13	=13	=13	=13	=13	=13	=13
0c	-ne	1.e	for-	1e	.	2dd\]	.
.	.	.	.	.	.	2cc\	.
.	.	.	.	1c	.	[1cc	-ne
.	.	4d\	.	.	.	.	.
.	.	4c\	.	.	.	.	.
=14	=14	=14	=14	=14	=14	=14	=14
1r	.	1e	.	1g	-ne	1cc]	.
1G	con-	[1d	-tu-	2r	.	1b	con-
.	.	.	.	2g\	con-	.	.
=15	=15	=15	=15	=15	=15	=15	=15
2.A/	.	2d\]	.	2f\	.	0cc	-traint?
.	.	2c\	.	2.e\	.	.	.
4B\	.	.	.	.	.	.	.
2c\	.	[1c	-ne	.	.	.	.
.	.	.	.	4d\	.	.	.
[2F/	.	.	.	4c\	.	.	.
.	.	.	.	4B\	.	.	.
=16	=16	=16	=16	=16	=16	=16	=16
2F/]	.	1c]	.	4A/	.	0r	.
.	.	.	.	4G/	.	.	.
2E/	.	.	.	1G	.	.	.
1D	.	1B	con-	.	.	.	.
.	.	.	.	2F/	.	.	.
=17	=17	=17	=17	=17	=17	=17	=17
0C	-traint?	0c	-traint?	1G	-traint?	1r	.
.	.	.	.	1r	.	1cc	L'oy-
=18	=18	=18	=18	=18	=18	=18	=18
1r	.	0r	.	1c	L'oy-	1.gg	-seau
1C	L'oy-	.	.	[1g	-seau	.	.
.	.	.	.	.	.	2ff\	qui
=19	=19	=19	=19	=19	=19	=19	=19
1G	-seau	1r	.	2g\]	.	1ee	pert
.	.	.	.	2f\	qui	.	.
1A	qui	1c	L'oy-	2e\	pert	1cc	sa
.	.	.	.	4d\	.	.	.
.	.	.	.	4c\	.	.	.
=20	=20	=20	=20	=20	=20	=20	=20
1.G	pert	1.g	-seau	2B\	.	0dd	proy-
.	.	.	.	2G/	sa	.	.
.	.	.	.	[1g	proy-	.	.
4A/	sa	2f\	qui	.	.	.	.
4B\	.	.	.	.	.	.	.
=21	=21	=21	=21	=21	=21	=21	=21
4c\	proy-	1e	pert	2g\]	.	0ee	-e
4B\	.	.	.	.	.	.	.
4A/	.	.	.	4f\	.	.	.
4G/	.	.	.	4e\	.	.	.
1A	.	1c	sa	4f\	.	.	.
.	.	.	.	4e\	.	.	.
.	.	.	.	4d\	.	.	.
.	.	.	.	4c\	.	.	.
=22	=22	=22	=22	=22	=22	=22	=22
2.G/	.	0d	proy-	2B\	-e	1r	.
.	.	.	.	2G/	De	.	.
4F/	.	.	.	.	.	.	.
1D	.	.	.	2A/	.	1ff	De
.	.	.	.	2B\	.	.	.
=23	=23	=23	=23	=23	=23	=23	=23
[0C	-e	0e	-e	1.c	riens	1.ee	riens
.	.	.	.	2B\	.	4dd\	.
.	.	.	.	.	.	4cc\	.
=24	=24	=24	=24	=24	=24	=24	=24
1C]	.	1r	.	2G/	.	1ee	.
.	.	.	.	2A/	.	.	.
1BB	De	1f	De	1B	de	[1dd	ne
=25	=25	=25	=25	=25	=25	=25	=25
0C	riens	1.e	riens	1G	luy	2dd\]	.
.	.	.	.	.	.	2cc\	.
.	.	.	.	[1g	sou-	[1cc	luy
.	.	4d\	.	.	.	.	.
.	.	4c\	.	.	.	.	.
=26	=26	=26	=26	=26	=26	=26	=26
1r	.	1e	.	0g]	.	1cc]	.
1G	ne	[1d	ne	.	.	1b	sou-
=27	=27	=27	=27	=27	=27	=27	=27
2.A/	luy	2d\]	.	2f\	.	0cc	-vient.
.	.	2c\	.	2.e\	.	.	.
4B\	.	.	.	.	.	.	.
2c\	.	[1c	luy	.	.	.	.
.	.	.	.	4d\	.	.	.
[2F/	sou-	.	.	4c\	.	.	.
.	.	.	.	4B\	.	.	.
=28	=28	=28	=28	=28	=28	=28	=28
2F/]	.	1c]	.	4A/	.	0r	.
.	.	.	.	4G/	.	.	.
2E/	.	.	.	1G	.	.	.
1D	.	1B	sou-	.	.	.	.
.	.	.	.	2F/	.	.	.
=29	=29	=29	=29	=29	=29	=29	=29
[0C	-vient.	0c	-vient.	1G	-vient.	1r	.
.	.	.	.	[1c	Au	1g	Au
=30	=30	=30	=30	=30	=30	=30	=30
0C]	.	0r	.	2c\]	.	1.cc	boys
.	.	.	.	2c\	boys	.	.
.	.	.	.	2.c\	sur	.	.
.	.	.	.	.	.	2cc\	sur
.	.	.	.	4d\	.	.	.
=31	=31	=31	=31	=31	=31	=31	=31
0r	.	1r	.	2e\	.	1cc	la
.	.	.	.	2c\	.	.	.
.	.	1G	Au	1g	.	1dd	ver-
=32	=32	=32	=32	=32	=32	=32	=32
0r	.	1.c	boys	2r	.	1.ee	-du-
.	.	.	.	2.g\	la	.	.
.	.	.	.	4f\	ver-	.	.
.	.	2c\	sur	[2e\	-du-	4dd\	.
.	.	.	.	.	.	4cc\	.
=33	=33	=33	=33	=33	=33	=33	=33
1r	.	1c	la	2e\]	.	1cc	-re
.	.	.	.	4d\	.	.	.
.	.	.	.	4c\	.	.	.
1G	Au	1d	ver-	1B	-re	1r	.
=34	=34	=34	=34	=34	=34	=34	=34
1.c	boys	1.e	-du-	1r	.	0gg	N'a-
.	.	.	.	1c	N'a	.	.
2B\	sur	4d\	.	.	.	.	.
.	.	4c\	.	.	.	.	.
=35	=35	=35	=35	=35	=35	=35	=35
0A	la ver-	1c	-re	1F	point	1ff	point
.	.	1r	.	1c	tout	[1ee	tout
=36	=36	=36	=36	=36	=36	=36	=36
1.G	-du-	0g	N'a-	1B	.	2ee\]	.
.	.	.	.	.	.	2dd\	.
.	.	.	.	1G	son	[1dd	son
4F/	.	.	.	.	.	.	.
4E/	.	.	.	.	.	.	.
=37	=37	=37	=37	=37	=37	=37	=37
1D	-re	1f	point	2.A/	de-	1dd]	.
.	.	.	.	4B\	.	.	.
1A	N'a-	[1e	tout	2.c\	.	1cc	de-
.	.	.	.	4B\	.	.	.
=38	=38	=38	=38	=38	=38	=38	=38
2.B-i\	point	2e\]	.	2.G/	.	0dd	-sir;
.	.	2d\	.	.	.	.	.
4A/	.	.	.	4F/	.	.	.
4G/	tout	[1d	son	4G/	.	.	.
4F/	.	.	.	4A/	.	.	.
[2G/	son	.	.	[2B-i\	.	.	.
=39	=39	=39	=39	=39	=39	=39	=39
4G/]	.	1d]	.	2B-\]	.	0r	.
4F/	.	.	.	.	.	.	.
4E/	de-	.	.	1A	.	.	.
4D/	.	.	.	.	.	.	.
1E	-sir;	1c#i	de-	.	.	.	.
.	.	.	.	2G/	.	.	.
=40	=40	=40	=40	=40	=40	=40	=40
1D	De	0d	-sir;	2A/	-sir,	1r	.
.	.	.	.	1d	De	.	.
[1G	chan-	.	.	.	.	1dd	De
.	.	.	.	2c\	chant-	.	.
=41	=41	=41	=41	=41	=41	=41	=41
2G/]	.	0r	.	2B\	-ter	1.gg	chan-
2F/	-ter	.	.	2A/	.	.	.
2E/	il	.	.	[1G	.	.	.
2D/	.	.	.	.	.	2ff\	-ter
=42	=42	=42	=42	=42	=42	=42	=42
1C	.	1r	.	2G/]	.	1ee	il
.	.	.	.	2A/	il	.	.
1BB-	n'a-	1d	De	1B-	n'a-	1ff	n'a-
=43	=43	=43	=43	=43	=43	=43	=43
1C	cu-	1.g	chan-	2.G/	cu-	2ee\	cu-
.	.	.	.	.	.	2cc\	.
.	.	.	.	4A/	.	.	.
1BB-i	.	.	.	4B-i\	.	1dd	.
.	.	.	.	4c\	.	.	.
.	.	2f\	-ter	2d\	.	.	.
=44	=44	=44	=44	=44	=44	=44	=44
1C	.	1e	il	2G/	.	1ee	-re
.	.	.	.	2c\	.	.	.
1BB-i	.	1f	n'a-	4d\	.	1r	.
.	.	.	.	4c\	.	.	.
.	.	.	.	4B-i\	.	.	.
.	.	.	.	4A/	.	.	.
=45	=45	=45	=45	=45	=45	=45	=45
1C	-re	2e\	cu-	2G/	-re	1r	.
.	.	2c\	.	2A/	.	.	.
1BB-i	Qui	1d	.	1B-i	Qui	1ff	Qui
=46	=46	=46	=46	=46	=46	=46	=46
1C	vit	1e	-re	2G/	vit	1ee	vit
.	.	.	.	2.g\	en	.	.
1G	en	1r	.	.	.	[1dd	en
.	.	.	.	4f\	.	.	.
.	.	.	.	2d\	.	.	.
=47	=47	=47	=47	=47	=47	=47	=47
1.A	des-	1r	.	2f\	des-	2dd\]	.
.	.	.	.	2e\	.	2cc\	.
.	.	1f	Qui	1c	-plai-	[1cc	des-
2B\	.	.	.	.	.	.	.
=48	=48	=48	=48	=48	=48	=48	=48
1c	.	1e	vit	1g	-sir,	1cc]	.
1G	-plai-	[1d	en	2r	.	1b	-plai-
.	.	.	.	2g\	en	.	.
=49	=49	=49	=49	=49	=49	=49	=49
2.A/	-sir,	2d\]	.	2f\	de-	0cc	-sir,
.	.	2c\	.	2.e\	.	.	.
4B\	.	.	.	.	.	.	.
2c\	.	[1c	des-	.	.	.	.
.	.	.	.	4d\	.	.	.
[2F/	en	.	.	4c\	.	.	.
.	.	.	.	4B\	.	.	.
=50	=50	=50	=50	=50	=50	=50	=50
2F/]	.	1c]	.	4A/	.	1r	.
.	.	.	.	4G/	.	.	.
2E/	de-	.	.	1G	-plai-	.	.
1D	-plai-	1B	-plai-	.	.	1ff	qui
.	.	.	.	2F/	.	.	.
=51	=51	=51	=51	=51	=51	=51	=51
1C	-sir,	0c	-sir,	2G/	-sir,	2ee\	vit
.	.	.	.	2.c\	en	1ee	en
2r	.	.	.	.	.	.	.
.	.	.	.	4d\	.	.	.
[2c\	en	.	.	2e\	.	4dd\	.
.	.	.	.	.	.	4cc\	.
=52	=52	=52	=52	=52	=52	=52	=52
2c\]	.	1r	.	2c\	de-	2ee\	de-
4B\	.	.	.	2.d\	-plai-	2.dd\	-plai-
4A/	.	.	.	.	.	.	.
1B	.	1f	qui	.	.	.	.
.	.	.	.	4e\	.	4cc\	.
.	.	.	.	4f\	.	4b\	.
.	.	.	.	4d\	.	4a/	.
=53	=53	=53	=53	=53	=53	=53	=53
1c	de-	2e\	vit	2e\	.	1g	-sir,
.	.	1e	en	2c\	.	.	.
1C	-plai-	.	.	[1g	-sir,	2r	.
.	.	4d\	.	.	.	[2cc\	en
.	.	4c\	.	.	.	.	.
=54	=54	=54	=54	=54	=54	=54	=54
1G	-sir,	2e\	de-	1g]	.	2cc\]	.
.	.	2.d\	-plai-	.	.	4b\	.
.	.	.	.	.	.	4a/	.
2r	.	.	.	1G	en	2b\	.
.	.	4c\	.	.	.	.	.
2G/	en	4B\	.	.	.	4cc\	.
.	.	4A/	.	.	.	4dd\	.
=55	=55	=55	=55	=55	=55	=55	=55
2E/	.	1G	-sir,	2.g\	de-	2ee\	.
2C/	.	.	.	.	.	2.gg\	de-
.	.	.	.	4f\	.	.	.
2.c\	de-	2r	.	4e\	.	.	.
.	.	.	.	4d\	.	4ff\	.
.	.	[2c\	en	2c\	.	4ee\	.
4B\	.	.	.	.	.	4dd\	.
=56	=56	=56	=56	=56	=56	=56	=56
1A	-plai-	2c\]	.	2f\	-plai-	1cc	-plai-
.	.	4B\	.	2e\	.	.	.
.	.	4A/	.	.	.	.	.
2G/	-sir,	2B\	.	2g\	-sir,	1dd	-sir,
2B\	en	4c\	.	2G/	en	.	.
.	.	4d\	.	.	.	.	.
=57	=57	=57	=57	=57	=57	=57	=57
2A/	.	2e\	.	2.c\	de-	4cc\	de-
.	.	.	.	.	.	4dd\	.
2G/	.	2.g\	de-	.	.	4ee\	.
.	.	.	.	4d\	.	4ff\	.
2.c\	de-	.	.	2e\	.	4ee\	.
.	.	4f\	.	.	.	4dd\	.
.	.	4e\	.	[2c\	-plai-	[2ee\	.
4B\	.	4d\	.	.	.	.	.
=58	=58	=58	=58	=58	=58	=58	=58
1A	.	1c	-plai-	4c\]	.	4ee\]	.
.	.	.	.	4d\	.	4dd\	.
.	.	.	.	4e\	.	1cc	.
.	.	.	.	4f\	.	.	.
1G	-plai-	1d	.	[1g	.	.	.
.	.	.	.	.	.	2b\	-plai-
=59	=59	=59	=59	=59	=59	=59	=59
[0Cl	-sir.	[0cl	-sir.	0g]	.	[0ccl	-sir.
=60	=60	=60	=60	=60	=60	=60	=60
0C]	.	0c]	.	0gl	-sir.	0cc]	.
==	==	==	==	==	==	==	==
*-	*-	*-	*-	*-	*-	*-	*-
!!!RDF**kern: l=long note in original notation
!!!RDF**kern: i=editorial accidental
!!!ENC: Jesse Rodin; Victoria Chang 2011/07/27
!!!END: 2011/07/27/
!!!EED: Jesse Rodin
!!!EEV: 2011/08/08/
!!attribution-level@Jos: 1 (secure, core group [checkmark])
!!!ONB: Translated from MusicXML and edited on 2011/08/08/ by Craig Sapp
!!muse2ps:  C^@{COM}\n@{SCT}^i2I150v90,90,90,120c115z18l2700t130
